X: 1
T: My Dungannon Sweetheart
C: Graham Townsend
S: Gordon Turnbull <gturnbull:oblique-design.demon.co.uk> via irtrad-l
M: 6/8
L: 1/8
R: Jig
K: D
A | "D"~D3 FAd | ~f3 f>ec | e>dd dAF | "Em"A>GG GEC \
| "A7"A,>CE Ace | ~a3 a2f | g>ec ABc |1 "D"dFB "A7"~A2 :|2 "D"~d3 z2 ||
|: e | "D"~f3 fdB | ~A3 A2B | AFB AFB | "Em"A>GG GBd \
| "A7"~g3 gec | A>ce a2f | g>ec ABc |1 "D"dFB "A7"~A2 :|2 "D"~d3 z2 |]

